X: 1
T:The Wind that Shakes the Barley
M:C
L:1/8
Q:80
C:
S:Reel
K:HP
B|:
{g}A2{g}AB{g}A2{g}AG|
{g}B2{d}BA{g}BcdB|
{g}A2{g}AB{g}AGAB|  !
{a}gf{g}ed{g}Bc{g}dB|
{g}A2{g}AB{g}A2{g}AG|
{g}B2{d}BA{g}BcdB|  !
{g}A2{g}AB{g}AGAB|
{a}gf{g}ed{g}Bc{g}de|]
{g}f2{g}fd{gf}g2{a}ge|  !
{g}f2{g}fd{g}Bc{g}de|
{g}f2{g}fd{gf}g2{a}ge|
af{g}ed{g}Bc{g}de|1  !
{g}f2{g}fd{gf}g2{a}ge|
{g}f2{g}fd{g}Bc{g}de|
{g}de{g}fgafaf|  !
gf{g}ed{g}Bc{g}dB:|2
{g}f2{g}fd{gf}g2{a}ge|
{g}f2{g}fd{g}Bc{g}de|  !
{g}de{g}fgafaf|
{g}eABc{Gdc}d2{g}d|]
